src/static/footer/senai.svg

<svg width="141" height="41" viewBox="0 0 141 41" fill="none" xmlns="http://www.w3.org/2000/svg">
<mask id="mask0_96_25" style="mask-type:luminance" maskUnits="userSpaceOnUse" x="0" y="0" width="141" height="41">
<path d="M140.519 0H0V40.44H140.519V0Z" fill="white"/>
</mask>
<g mask="url(#mask0_96_25)">
<path d="M140.519 0H0V40.44H140.519V0Z" fill="#FF0000"/>
</g>
<mask id="mask1_96_25" style="mask-type:luminance" maskUnits="userSpaceOnUse" x="0" y="0" width="141" height="41">
<path d="M140.519 0H0V40.44H140.519V0Z" fill="white"/>
</mask>
<g mask="url(#mask1_96_25)">
<path d="M0 34.56H7.55822V33.48H0V34.56ZM0 27.72H7.55822V26.64H0V27.72ZM0 20.64H7.55822V19.56H0V20.64ZM0 13.68H7.55822V12.6H0V13.68ZM0 6.84001H7.55822V5.76001H0V6.84001Z" fill="white"/>
</g>
<mask id="mask2_96_25" style="mask-type:luminance" maskUnits="userSpaceOnUse" x="0" y="0" width="141" height="41">
<path d="M140.519 0H0V40.44H140.519V0Z" fill="white"/>
</mask>
<g mask="url(#mask2_96_25)">
<path d="M133.067 34.56H140.519V33.48H133.067V34.56ZM133.067 27.72H140.519V26.64H133.067V27.72ZM133.067 20.64H140.519V19.56H133.067V20.64ZM133.067 13.68H140.519V12.6H133.067V13.68ZM133.067 6.84001H140.519V5.76001H133.067V6.84001Z" fill="white"/>
</g>
<mask id="mask3_96_25" style="mask-type:luminance" maskUnits="userSpaceOnUse" x="0" y="0" width="141" height="41">
<path d="M140.519 0H0V40.44H140.519V0Z" fill="white"/>
</mask>
<g mask="url(#mask3_96_25)">
<mask id="mask4_96_25" style="mask-type:luminance" maskUnits="userSpaceOnUse" x="0" y="0" width="141" height="41">
<path d="M140.519 0H0V40.44H140.519V0Z" fill="white"/>
</mask>
<g mask="url(#mask4_96_25)">
<path fill-rule="evenodd" clip-rule="evenodd" d="M124.977 34.56L130.406 5.76004H123.273L117.844 34.56H124.977ZM99.002 23.28L104.751 11.28H104.857L105.815 23.28H99.002ZM93.4664 34.56L96.2342 28.92H106.667L107.305 34.56H115.289L110.605 5.76004H101.983L86.334 34.56H93.4664ZM58.7625 34.56H65.1497L69.3014 12.48H69.4079L73.8789 34.56H83.6727L89.1018 5.76004H82.7146L78.6693 27.12V27.24L74.0918 5.76004H64.1916L58.7625 34.56ZM54.8237 34.56L55.8882 28.92H43.4331L44.6041 22.8H55.9947L57.0592 17.16H45.6687L46.8397 11.16H59.1883L60.2528 5.52004H40.7718L35.3427 34.32H54.8237V34.56ZM34.2781 14.16C35.9814 7.20004 30.9781 5.04004 25.7618 5.04004C20.4391 5.04004 14.6906 6.96004 13.2003 13.8C12.668 16.92 13.4132 19.56 15.7552 20.88C20.7585 23.64 26.1876 22.8 25.4425 26.76C25.1231 28.68 22.7811 29.64 21.1843 29.64C18.6294 29.64 17.1391 28.2 17.6713 25.44H10.5389C9.15503 33.24 14.0519 35.28 20.0133 35.28C25.9747 35.28 31.8297 32.4 32.8942 26.28C34.3846 18.48 28.2103 18 24.165 16.8C22.3553 16.2 20.2262 15.6 20.652 13.44C20.9714 12 22.5682 10.8 24.165 10.8C25.336 10.8 26.1876 11.16 26.7199 11.76C27.2522 12.36 27.3586 13.2 27.1457 14.28H34.2781V14.16Z" fill="white"/>
</g>
</g>
</svg>

<svg width="141" height="41" fill="none" xmlns="http://www.w3.org/2000/svg"><mask id="a" style="mask-type:luminance" maskUnits="userSpaceOnUse" x="0" y="0" width="141" height="41"><path d="M140.519 0H0v40.44h140.519V0Z" fill="#fff"/></mask><g mask="url(#a)"><path d="M140.519 0H0v40.44h140.519V0Z" fill="red"/></g><mask id="b" style="mask-type:luminance" maskUnits="userSpaceOnUse" x="0" y="0" width="141" height="41"><path d="M140.519 0H0v40.44h140.519V0Z" fill="#fff"/></mask><g mask="url(#b)"><path d="M0 34.56h7.558v-1.08H0v1.08Zm0-6.84h7.558v-1.08H0v1.08Zm0-7.08h7.558v-1.08H0v1.08Zm0-6.96h7.558V12.6H0v1.08Zm0-6.84h7.558V5.76H0v1.08Z" fill="#fff"/></g><mask id="c" style="mask-type:luminance" maskUnits="userSpaceOnUse" x="0" y="0" width="141" height="41"><path d="M140.519 0H0v40.44h140.519V0Z" fill="#fff"/></mask><g mask="url(#c)"><path d="M133.067 34.56h7.452v-1.08h-7.452v1.08Zm0-6.84h7.452v-1.08h-7.452v1.08Zm0-7.08h7.452v-1.08h-7.452v1.08Zm0-6.96h7.452V12.6h-7.452v1.08Zm0-6.84h7.452V5.76h-7.452v1.08Z" fill="#fff"/></g><mask id="d" style="mask-type:luminance" maskUnits="userSpaceOnUse" x="0" y="0" width="141" height="41"><path d="M140.519 0H0v40.44h140.519V0Z" fill="#fff"/></mask><g mask="url(#d)"><mask id="e" style="mask-type:luminance" maskUnits="userSpaceOnUse" x="0" y="0" width="141" height="41"><path d="M140.519 0H0v40.44h140.519V0Z" fill="#fff"/></mask><g mask="url(#e)"><path fill-rule="evenodd" clip-rule="evenodd" d="m124.977 34.56 5.429-28.8h-7.133l-5.429 28.8h7.133ZM99.002 23.28l5.749-12h.106l.958 12h-6.813Zm-5.536 11.28 2.768-5.64h10.433l.638 5.64h7.984l-4.684-28.8h-8.622l-15.649 28.8h7.132Zm-34.703 0h6.387L69.3 12.48h.107l4.47 22.08h9.795l5.429-28.8h-6.387l-4.046 21.36v.12L74.092 5.76h-9.9l-5.43 28.8Zm-3.94 0 1.065-5.64H43.433l1.171-6.12h11.39l1.065-5.64H45.67l1.17-6h12.35l1.064-5.64H40.772l-5.43 28.8h19.482v.24Zm-20.545-20.4c1.703-6.96-3.3-9.12-8.516-9.12-5.323 0-11.071 1.92-12.562 8.76-.532 3.12.213 5.76 2.555 7.08 5.004 2.76 10.433 1.92 9.687 5.88-.319 1.92-2.66 2.88-4.258 2.88-2.555 0-4.045-1.44-3.513-4.2H10.54c-1.384 7.8 3.513 9.84 9.474 9.84 5.962 0 11.817-2.88 12.881-9 1.49-7.8-4.684-8.28-8.729-9.48-1.81-.6-3.939-1.2-3.513-3.36.32-1.44 1.916-2.64 3.513-2.64 1.171 0 2.023.36 2.555.96s.639 1.44.426 2.52h7.132v-.12Z" fill="#fff"/></g></g></svg>
